svgs/regular/square-chevron-up.svg

<svg xmlns="http://www.w3.org/2000/svg" viewBox="0 0 448 512"><!--! Font Awesome Pro 6.0.0-alpha3 by @fontawesome - https://fontawesome.com License - https://fontawesome.com/license (Commercial License) --><path d="M64 480h320c35.35 0 64-28.66 64-64V96c0-35.34-28.65-64-64-64H64C28.65 32 0 60.66 0 96v320C0 451.3 28.65 480 64 480zM48 96c0-8.82 7.178-16 16-16h320c8.822 0 16 7.18 16 16v320c0 8.82-7.178 16-16 16H64c-8.822 0-16-7.18-16-16V96zM128.1 304.1L224 209.9l95.03 95.03c9.375 9.375 24.56 9.375 33.94 0s9.375-24.56 0-33.94l-112-112C236.3 154.3 230.2 152 224 152S211.7 154.3 207 159l-112 112c-9.375 9.375-9.375 24.56 0 33.94S119.6 314.3 128.1 304.1z"/></svg>

<svg xmlns="http://www.w3.org/2000/svg" viewBox="0 0 448 512"><!-- Font Awesome Pro 6.0.0-alpha2 by @fontawesome - https://fontawesome.com License - https://fontawesome.com/license (Commercial License) --><path d="M64 480H384C419.346 480 448 451.344 448 416V96C448 60.656 419.346 32 384 32H64C28.654 32 0 60.656 0 96V416C0 451.344 28.654 480 64 480ZM48 96C48 87.18 55.178 80 64 80H384C392.822 80 400 87.18 400 96V416C400 424.82 392.822 432 384 432H64C55.178 432 48 424.82 48 416V96ZM128.969 304.969L224 209.938L319.031 304.969C328.406 314.344 343.594 314.344 352.969 304.969S362.344 280.406 352.969 271.031L240.969 159.031C236.281 154.344 230.156 152 224 152S211.719 154.344 207.031 159.031L95.031 271.031C85.656 280.406 85.656 295.594 95.031 304.969S119.594 314.344 128.969 304.969Z"/></svg>
